lib/brands/icons/international-breastfeeding.svg

<svg xmlns="http://www.w3.org/2000/svg" fill="none" aria-hidden="true" viewBox="0 0 48 48"><g id="international-breastfeeding-Icon"><g id="Group"><path id="Vector" fill="#0056A8" d="M39.8089 6H8.19109C6.98098 6 6 6.98098 6 8.19109V39.8089C6 41.019 6.98098 42 8.19109 42H39.8089C41.019 42 42 41.019 42 39.8089V8.19109C42 6.98098 41.019 6 39.8089 6Z"/><g id="Subtract"><path fill="white" d="M24.0072 19.697C26.3121 19.697 28.1807 17.8284 28.1807 15.5235C28.1807 13.2185 26.3121 11.35 24.0072 11.35C21.7022 11.35 19.8337 13.2185 19.8337 15.5235C19.8337 17.8284 21.7022 19.697 24.0072 19.697Z"/><path fill="white" fill-rule="evenodd" d="M27.5366 20.8267C27.9936 20.8267 28.4073 20.8843 28.7743 21.003C29.4543 21.2189 29.9796 21.6218 30.3933 22.0824C31.0174 22.7786 31.5458 23.74 32.093 24.7354L32.0934 24.7363C32.1738 24.8825 32.2546 25.0295 32.3362 25.1765C32.3502 25.2018 32.3644 25.2272 32.3786 25.2526C32.3956 25.2832 32.4127 25.3139 32.4299 25.3446C33.0139 26.3911 33.645 27.5218 33.6314 28.9183C33.617 30.3826 32.9154 31.4403 32.1922 32.2283C31.2136 33.2968 29.9184 34.592 27.9468 34.5669C26.9538 34.5525 26.0255 33.9948 26.1839 32.8399C26.2685 32.2228 26.6853 31.8517 27.0997 31.4828L27.0998 31.4828C27.2845 31.3183 27.4688 31.1543 27.623 30.969C25.1657 31.2245 24.1043 29.9796 23.1617 28.4865C23.0686 28.3392 22.9836 28.1758 22.8976 28.0105L22.8976 28.0104C22.6245 27.4853 22.3413 26.941 21.7585 26.8315C20.2294 26.5437 20.4129 28.303 20.7871 29.278C20.8311 29.3933 20.912 29.5412 20.9962 29.6953C21.1461 29.9695 21.3069 30.2635 21.2908 30.4293C21.2476 30.8719 20.3733 31.0518 19.8876 31.1489C19.6398 31.1973 19.374 31.2226 19.1143 31.2474C18.7177 31.2851 18.3353 31.3215 18.0527 31.4367C18.227 31.8058 18.6772 31.9801 19.0703 32.1324C19.0911 32.1404 19.1117 32.1484 19.1321 32.1563C19.5422 32.3146 20.0172 32.4477 20.4993 32.5521C21.1522 32.6926 21.8337 32.7019 22.511 32.7112C22.9608 32.7173 23.4088 32.7234 23.8453 32.7679C24.8527 32.8723 26.004 33.7681 25.4283 35.1065C25.0074 36.0852 23.7409 36.614 22.3701 36.6896C20.0243 36.8191 17.2036 35.6138 16.002 34.5309C15.009 33.635 14.257 32.1815 14.3829 30.4293C14.5053 28.724 15.3328 27.0474 16.002 25.7162C16.101 25.5194 16.1986 25.321 16.2963 25.1225C17.0256 23.6404 17.7561 22.156 19.0601 21.3628C19.5422 21.0678 20.2366 20.8267 21.0389 20.8267H27.5366ZM30.0515 27.5403C30.0515 29.1299 28.7629 30.4185 27.1733 30.4185C25.5836 30.4185 24.295 29.1299 24.295 27.5403C24.295 25.9506 25.5836 24.662 27.1733 24.662C28.7629 24.662 30.0515 25.9506 30.0515 27.5403Z" clip-rule="evenodd"/></g></g></g></svg>

<svg xmlns="http://www.w3.org/2000/svg" fill="none" aria-hidden="true" viewBox="0 0 48 48"><path fill="#0056A8" d="M39.809 6H8.19A2.19 2.19 0 0 0 6 8.191V39.81A2.19 2.19 0 0 0 8.191 42H39.81c1.21 0 2.191-.981 2.191-2.191V8.19A2.192 2.192 0 0 0 39.809 6Z"/><path fill="#fff" d="M24.007 19.697a4.174 4.174 0 1 0 0-8.347 4.174 4.174 0 0 0 0 8.347Z"/><path fill="#fff" fill-rule="evenodd" d="M27.537 20.827c.457 0 .87.057 1.237.176.68.216 1.206.619 1.62 1.08.623.696 1.152 1.657 1.699 2.652v.001l.243.44.043.077c.017.03.034.06.05.092.585 1.046 1.216 2.177 1.202 3.573-.014 1.465-.716 2.522-1.439 3.31-.978 1.069-2.274 2.364-4.245 2.339-.993-.014-1.921-.572-1.763-1.727.084-.617.501-.988.916-1.357.184-.165.369-.329.523-.514-2.457.255-3.519-.99-4.461-2.483a6.44 6.44 0 0 1-.264-.476c-.273-.525-.557-1.069-1.14-1.179-1.529-.287-1.345 1.472-.97 2.447.043.115.124.263.208.417.15.274.31.569.295.734-.043.443-.918.623-1.403.72a8.102 8.102 0 0 1-.774.098c-.396.038-.779.075-1.061.19.174.369.624.543 1.017.695l.062.024c.41.159.885.292 1.367.396.653.14 1.335.15 2.012.16.45.005.898.011 1.334.056 1.008.104 2.159 1 1.583 2.339-.42.978-1.687 1.507-3.058 1.583-2.346.13-5.166-1.076-6.368-2.16a5.018 5.018 0 0 1-1.62-4.1c.123-1.706.95-3.383 1.62-4.714.099-.197.197-.395.294-.594.73-1.482 1.46-2.966 2.764-3.76a3.845 3.845 0 0 1 1.979-.535h6.498Zm2.515 6.713a2.878 2.878 0 1 1-5.757 0 2.878 2.878 0 0 1 5.756 0Z" clip-rule="evenodd"/></svg>
